!!!COM: Corelli, Arcangelo
!!!OTL: 
!!!ONM: Opus 3, No. 5
!!!OMV: 2
!!!CDT: 1653/2/17/-1713/1/8/
!!!OCY: Italia
**kern	**kern	**kern	**kern
*clefC	*clefC	*clefG	*clefG
*k[]	*k[]	*k[]	*k[]
*a:	*a:	*a:	*a:
*M4/4	*M4/4	*M4/4	*M4/4
=1	=1	=1	=1
2D	2D	1r	8dd
.	.	.	8a
.	.	.	8dd
.	.	.	8ff
2C#	2C#	.	8ee
.	.	.	8a
.	.	.	8ee
.	.	.	8aa
=2	=2	=2	=2
2D	2D	1r	8ff
.	.	.	8dd
.	.	.	8r
.	.	.	8bb-
2E	2E	.	8gg
.	.	.	8cc
.	.	.	8gg
.	.	.	8ccc
=3	=3	=3	=3
2F	2F	1r	8aa
.	.	.	8ff
.	.	.	8r
.	.	.	8aa
2G	2G	.	8b
.	.	.	8dd
.	.	.	8gg
.	.	.	8b
=4	=4	=4	=4
4A	4A	1r	8cc#
.	.	.	8a
8r	8r	.	2dd
8F	8F	.	.
8G	8G	.	.
8E	8E	.	.
8A	8A	.	4cc#
8AA	8AA	.	.
=5	=5	=5	=5
2D	2D	2r	8dd
.	.	.	8aa
.	.	.	8ff
.	.	.	8dd
2C	2C	8a	8ee
.	.	8e	8aa
.	.	8a	8ee
.	.	8cc	8a
=6	=6	=6	=6
4E	4E	8b	4a
.	.	8e	.
4EE	4EE	8b	4g#
.	.	8ee	.
4.AA	4.AA	8cc	4a
.	.	8a	.
.	.	8r	[4cc
8A	8A	8ff	.
=7	=7	=7	=7
4G	4G	8dd	4cc]
.	.	8g	.
4GG	4GG	8dd	4b
.	.	8gg	.
4.C	4.C	8ee	4cc
.	.	8cc	.
.	.	8r	[4ee
8C	8C	8ee	.
=8	=8	=8	=8
4.D	4.D	8f#	4ee]
.	.	8a	.
.	.	8dd	2dd
8D	8D	8f#	.
4E	4E	8g#	.
.	.	8e	.
8r	8r	[4a	4cc
8C	8C	.	.
=9	=9	=9	=9
8D	8D	4a]	2b
8BB	8BB	.	.
8E	8E	4g#	.
8EE	8EE	.	.
4.AA	4AA	4a	8a
.	.	.	8ee
.	4r	8r	[4aa
8AA	.	8cc#	.
=10	=10	=10	=10
4BB	2r	4dd	8aa]
.	.	.	8dd
4C#	.	8r	4.gg
.	.	8ee	.
2DD	8D	4a	.
.	8AA	.	16aa
.	.	.	16gg
.	8D	8r	8ff
.	8F	8dd	8dd
=11	=11	=11	=11
2AA	8E	4dd	8ee
.	8AA	.	16ee
.	.	.	16ff
.	8E	4cc#	8gg
.	8A	.	16ff
.	.	.	16ee
4D	8F	4dd	8ff
.	8D	.	8a
8r	8r	[4ff	8dd
8B-	8B-	.	8ff
=12	=12	=12	=12
8G	8G	8ff]	4.bb-
8C	8C	16ee	.
.	.	16dd	.
8G	8G	4ee	.
8c	8c	.	16aa
.	.	.	16gg
4F	8A	4ff	8aa
.	8F	.	8cc
8r	8r	4aa	[4ff
8A	8A	.	.
=13	=13	=13	=13
4BB	4BB	4.gg	8ff]
.	.	.	16ee
.	.	.	16dd
4C#	4C#	.	4.ee
.	.	16aa	.
.	.	16gg	.
4.D	4.D	4.ff	.
.	.	.	8a
.	.	.	[4dd
8F	8F	8aa	.
=14	=14	=14	=14
8G	8G	8bb-	4dd]
8E	8E	8ee	.
8A	8A	4ee	4cc#
8AA	8AA	.	.
2D	2D	4dd	8dd
.	.	.	8a
.	.	8r	8dd
.	.	8dd	8ff
=15	=15	=15	=15
2C	2C	4a	8ee
.	.	.	8a
.	.	8r	8aa
.	.	8aa	8a
2BB-	2BB-	4aa	8dd
.	.	.	8ff
.	.	4gg	8ee
.	.	.	8dd
=16	=16	=16	=16
2AA	2AA	2aa	2cc#
2A	2r	2r	8a
.	.	.	8e
.	.	.	8a
.	.	.	8cc
=17	=17	=17	=17
2G#	1r	2r	8b
.	.	.	8e
.	.	.	8b
.	.	.	8ee
2A	.	8a	8cc
.	.	8e	8a
.	.	8a	[4aa
.	.	8cc	.
=18	=18	=18	=18
2E	2r	8b	4aa]
.	.	8e	.
.	.	8b	4gg#
.	.	8ee	.
2AA	8A	8cc	4.ccc
.	8E	8a	.
.	8A	[4aa	.
.	8c	.	8aa
=19	=19	=19	=19
2EE	8B	4aa]	4bb
.	8E	.	.
.	8B	4gg#	2bb
.	8e	.	.
4.AA	8c	2ccc	.
.	8A	.	.
.	8r	.	[4aa
8C	8C	.	.
=20	=20	=20	=20
8D	8D	2bb	4aa]
8BB	8BB	.	.
8E	8E	.	4gg#
8EE	8EE	.	.
4.AA	4.AA	2aa	8aa
.	.	.	8cc
.	.	.	[4ff
8A	8A	.	.
=21	=21	=21	=21
8B-	8B-	[2gg	4ff]
8G	8G	.	.
8c	8c	.	4ee
8C	8C	.	.
4.F	8F	8gg]	4.aa
.	8G	8cc	.
.	8A	8ff	.
8F	8F	8aa	8ccc
=22	=22	=22	=22
8B-	8B-	8dd	4bb-
8c	8c	8ee	.
8d	8d	2ff	4aa
8A	8A	.	.
8B-	8B-	.	2gg
8G	8G	.	.
8c	8c	4ee	.
8C	8C	.	.
=23	=23	=23	=23
8F	8F	4ff	4.ff
8G	8G	.	.
8A	8A	2ff	.
8F	8F	.	8aa
8C	8C	.	4.gg
8D	8D	.	.
8E	8E	[4ee	.
8C#	8C#	.	16aa
.	.	.	16gg
=24	=24	=24	=24
4.D	8D	8ee]	4.ff
.	8E	8a	.
.	8F	2dd	.
8D	8D	.	16gg
.	.	.	16ff
4.A	4.A	.	8ee
.	.	.	8a
.	.	4cc#	[4aa
8AA	8AA	.	.
=25	=25	=25	=25
4.BB-	4.BB-	4.dd	8aa]
.	.	.	8dd
.	.	.	4.gg
8GG	8GG	8ee	.
4AA	4AA	8cc#	.
.	.	8a	16aa
.	.	.	16gg
8r	8r	[4dd	8ff
8F	8F	.	8aa
=26	=26	=26	=26
8G	8G	4dd]	8bb-
8E	8E	.	8ee
8A	8A	4cc#	4ee
8AA	8AA	.	.
2D	2D	8dd	4dd
.	.	8a	.
.	.	[4b-	8r
.	.	.	8f
=27	=27	=27	=27
2E	2E	8b-]	8g
.	.	8g	8e
.	.	4.cc	8g
.	.	.	8cc
2F	2F	.	8a
.	.	8a	8f
.	.	[4dd	8r
.	.	.	8dd
=28	=28	=28	=28
2G	2G	8dd]	8b-
.	.	8dd	8g
.	.	4.ee	8b-
.	.	.	8ee
2A	2A	.	8cc
.	.	8cc	8a
.	.	[4ff	8r
.	.	.	8ff
=29	=29	=29	=29
2B-	2B-	8ff]	8dd
.	.	8dd	8b-
.	.	4.gg	8dd
.	.	.	8gg
2c	2c	.	8ee
.	.	8ee	8cc
.	.	[4aa	8r
.	.	.	8aa
=30	=30	=30	=30
2d	2d	8aa]	8ff
.	.	8ff	8dd
.	.	4.bb-	8ff
.	.	.	8bb-
2e	2e	.	8gg
.	.	8gg	8ee
.	.	[4ccc	8r
.	.	.	8ccc
=31	=31	=31	=31
4.f	4.f	8ccc]	8aa
.	.	8aa	8ff
.	.	8ddd	8aa
8A	8A	8ccc	8cc
8B-	8B-	4bb-	8dd
8c	8c	.	8ee
8d	8d	4aa	[4ff
8A	8A	.	.
=32	=32	=32	=32
8B-	8B-	2gg	4ff]
8G	8G	.	.
8c	8c	.	4ee
8C	8C	.	.
2F	2F	2ff	8f
.	.	.	8c
.	.	.	8f
.	.	.	8a
=33	=33	=33	=33
2E	1r	2r	8g
.	.	.	8c
.	.	.	8g
.	.	.	8cc
2F	.	8f	8a
.	.	8c	8f
.	.	8f	[4ff
.	.	8a	.
=34	=34	=34	=34
2C	2r	8g	4ff]
.	.	8c	.
.	.	8g	4ee
.	.	8cc	.
2FF	8F	8a	2ff
.	8C	8f	.
.	8F	[4ff	.
.	8A	.	.
=35	=35	=35	=35
2C	8G	4ff]	2r
.	8C	.	.
.	8G	4ee	.
.	8c	.	.
4.F	4.F	4ff	8dd
.	.	.	8a
.	.	[4dd	8dd
8D	8D	.	8ff
=36	=36	=36	=36
4A	4A	4dd]	8ee
.	.	.	8a
4AA	4AA	4cc#	8ee
.	.	.	8aa
2D	2D	8dd	8ff
.	.	8a	8dd
.	.	8dd	[4ddd
.	.	8ff	.
=37	=37	=37	=37
2AA	2AA	8ee	4ddd]
.	.	8a	.
.	.	8aa	2ccc
.	.	8gg	.
4D	4D	8ff#	.
.	.	8dd	.
8r	8r	[4gg	4bb-
8BB-	8BB-	.	.
=38	=38	=38	=38
4C	4C	4gg]	2aa
4D	4D	4ff#	.
2GG	2GG	2gg	8gg
.	.	.	8aa
.	.	.	8bb-
.	.	.	8gg
=39	=39	=39	=39
4d	4d	8ff#	2aa
.	.	8gg	.
4D	4D	8aa	.
.	.	8ff#	.
2G	2G	2bb-	8gg
.	.	.	8aa
.	.	.	8bb-
.	.	.	8gg
=40	=40	=40	=40
4d	4d	8ff#	2aa
.	.	8gg	.
4D	4D	8aa	.
.	.	8ff#	.
2G	2G	2bb-	8gg
.	.	.	8aa
.	.	.	8bb-
.	.	.	8gg
=41	=41	=41	=41
4c	4c	8gg	2ee
.	.	8aa	.
4C	4C	8bb-	.
.	.	8gg	.
2F	2F	2aa	8ff
.	.	.	8gg
.	.	.	8aa
.	.	.	8ff
=42	=42	=42	=42
4c	4c	8ee	2gg
.	.	8ff	.
4C	4C	8gg	.
.	.	8ee	.
2F	2F	4aa	8ff
.	.	.	8gg
.	.	[4ff	8aa
.	.	.	8ff
=43	=43	=43	=43
4BB	4BB	4ff]	4.gg
4C#	4C#	4.ee	.
.	.	.	8aa
4.D	4.D	.	4.ff
.	.	8a	.
.	.	[4dd	.
8F	8F	.	8aa
=44	=44	=44	=44
8G	8G	4dd]	8bb-
8E	8E	.	8ee
8A	8A	4cc#	4ee
8AA	8AA	.	.
2D	2D	2dd	8d
.	.	.	8A
.	.	.	8d
.	.	.	8f
=45	=45	=45	=45
2C#	2C#	2r	8e
.	.	.	8A
.	.	.	8e
.	.	.	8a
2D	2D	8d	8f
.	.	8A	8d
.	.	8d	[4dd
.	.	8f	.
=46	=46	=46	=46
2AA	4.A	8e	4dd]
.	.	8A	.
.	.	8e	2cc
.	8A	8a	.
2BB-	8B-	8f	.
.	8BB-	8d	.
.	8D	4dd	[4b-
.	8E	.	.
=47	=47	=47	=47
2FF	8F	2cc	4b-]
.	8G	.	.
.	8A	.	2a
.	8F	.	.
2GG	8G	2b-	.
.	8A	.	.
.	8B-	.	[4g
.	8G	.	.
=48	=48	=48	=48
1AA	2A	4c#	4g]
.	.	2d	4f
.	2AA	.	2e
.	.	4c#	.
=49	=49	=49	=49
1D	1D	1d	1d
==	==	==	==
*-	*-	*-	*-
!!!RWG: This file only contains pitch and duration data.
!!!RWG: Transposing instruments are not transposed.
!!!RWG: Durations of rests and tied notes may be interpreted.
!!!RWG: Key is interpreted using the Humdrum key tool.
!!!SCA: 
!!!YOR: Chrysander Edition
!!!AGN: chamber
!!!AFT: stage1
!!!ENC: F. Bennion
!!!END: 1997/04/15
!!!AST: baroque
!!!YEC: Copyright 1994, Center for Computer Assisted Research in the Humanities
!!!YEM: Rights to all derivative electronic formats reserved.
!!!YEM: Refer to licensing agreement for further details.
!!!YEN: United States of America
!!!EED: W.B. Hewlett
!!!KEY: 814475980
!!!EMD: Converted from MuseData to Humdrum Aug 9, 1999, by Bret Aarden using muse2kern.
!!!VTS: 3709516228
